!!!!SEGMENT: Wil1005b-Missa_Gaude_Barbara-Gloria
!!!id: Wil1005b
!!!AGN: Mass; Gloria
!!!voices: 4
!!!OPR: Missa Gaude Barbara
!!!COM: Adrian Willaert
!!!OTL: Gloria
**kern	**kern	**kern	**kern
*part4	*part3	*part2	*part1
*staff4	*staff3	*staff2	*staff1
*I"Bassus	*I"Tenor	*I"Altus	*I"Superius
*I'B	*I'T	*I'A	*I'S
*clefF4	*clefGv2	*clefG2	*clefG2
*k[]	*k[]	*k[]	*k[]
*C:	*C:	*C:	*C:
*M2/1	*M2/1	*M2/1	*M2/1
*met(C|)	*met(C|)	*met(C|)	*met(C|)
=1	=1	=1	=1
!!section: Et in terra
!!!OMD: Et in terra
1A	0r	0r	0r
1c	.	.	.
=2	=2	=2	=2
1d	0r	0r	0r
1d	.	.	.
=3	=3	=3	=3
1c	1A	0r	0r
2r	1c	.	.
2F	.	.	.
=4	=4	=4	=4
2.B-i	1d	0r	0r
4A	.	.	.
2G	1d	.	.
2F	.	.	.
=5	=5	=5	=5
2E	1c	0r	0r
2.F	.	.	.
.	2c	.	.
4E	.	.	.
4D	[2f	.	.
4C	.	.	.
=6	=6	=6	=6
2D	2f]	1r	0r
2C	2e	.	.
2F	2d	1d	.
2G	4c	.	.
.	4B	.	.
=7	=7	=7	=7
1A	2.c	1f	0r
.	4d	.	.
2.G	2e	1g	.
.	[2d	.	.
4F	.	.	.
=8	=8	=8	=8
1E	2d]	1g	1r
.	2c#i	.	.
1D	1d	[1f	1a
=9	=9	=9	=9
0r	0r	2f]	1cc
.	.	2f	.
.	.	2.b-i	1dd
.	.	4a	.
=10	=10	=10	=10
0r	0r	2g	1dd
.	.	2f	.
.	.	2e	[1cc
.	.	[2f	.
=11	=11	=11	=11
0r	0r	4f]	2cc]
.	.	8eL	.
.	.	8dJ	.
.	.	2e	2cc
.	.	2d	2.ff
.	.	[2b-i	.
.	.	.	4ee
=12	=12	=12	=12
0r	0r	2b-]	2dd
.	.	2a	2cc
.	.	2g	2b
.	.	2a	2cc
=13	=13	=13	=13
0r	0r	2.f	2cc
.	.	.	2dd
.	.	8eL	.
.	.	8dJ	.
.	.	2g	2ee
.	.	2f	[2dd
=14	=14	=14	=14
1A	2r	1e	2dd]
.	2A	.	2cc#i
2F	2A	1d	1dd
2G	2B	.	.
=15	=15	=15	=15
1A	1c	2r	2r
.	.	2e	2a
2r	1d	2f	2a
2G	.	2g	2b
=16	=16	=16	=16
1A	2r	1e	1cc
.	2A	.	.
2F	2A	1d	1dd
2G	2B	.	.
=17	=17	=17	=17
1E	2c	2r	1r
.	2c	2g	.
2D	2d	2f	2r
[2d	[2f	2d	2a
=18	=18	=18	=18
2d]	2f]	2f	2a
4c	4e	2g	2b
4B	4d	.	.
1A	1e	2.a	2cc
.	.	.	2cc
.	.	4g	.
=19	=19	=19	=19
2r	0d	4f	2.dd
.	.	4e	.
1D	.	1f	.
.	.	.	8ccL
.	.	.	8bJ
.	.	.	[1a
2D	.	4e	.
.	.	4d	.
=20	=20	=20	=20
2.A	2r	2e	1a]
.	1c	1a	.
4G	.	.	.
2F	.	.	1r
2E	2c	2g	.
=21	=21	=21	=21
2D	2.f	0a	0r
1F	.	.	.
.	4e	.	.
.	2d	.	.
2F	2c	.	.
=22	=22	=22	=22
2G	2B	0r	0r
1A	2c	.	.
.	2c	.	.
4G	2d	.	.
4F	.	.	.
=23	=23	=23	=23
2G	2e	2r	0r
2F	1d	2A	.
1E	.	2e	.
.	2c#i	2e	.
=24	=24	=24	=24
2r	1d	2f	2r
2D	.	2d	2ff
2A	2r	4c	2ff
.	.	4d	.
2A	2c	4e	2ee
.	.	4c	.
=25	=25	=25	=25
2B-X	2f	2d	2dd
2G	2g	2e	4cc
.	.	.	4b
4F	1a	2A	2.cc
4G	.	.	.
4A	.	[2c	.
4F	.	.	4dd
=26	=26	=26	=26
1G	2.g	2c]	2ee
.	.	2B	1dd
.	4f	.	.
2.A	1e	2c	.
.	.	[2A	2cc#i
4G	.	.	.
=27	=27	=27	=27
4F	1r	2A]	1dd
4E	.	.	.
1G	.	1B	.
.	1d	.	1r
4F	.	4A	.
4E	.	4G	.
=28	=28	=28	=28
0D	2d	1A	2r
.	2d	.	1a
.	2.f	1r	.
.	.	.	2a
.	4e	.	.
=29	=29	=29	=29
0r	2d	1r	2b
.	2c	.	2cc
.	2f	2r	2a
.	2f	2A	[2cc
=30	=30	=30	=30
0r	0e	2A	2cc]
.	.	2A	4b
.	.	.	4a
.	.	2.c	1g
.	.	4B	.
=31	=31	=31	=31
0r	1r	2A	2a
.	.	2G	2.b
.	2r	1d	.
.	.	.	4a
.	[2d	.	[2a
=32	=32	=32	=32
0r	2d]	1B	2a]
.	2d	.	2g#i
.	2e	1A	[1a
.	2f	.	.
=33	=33	=33	=33
2r	2d	0r	0a_
2D	1f	.	.
2D	.	.	.
2D	4e	.	.
.	4d	.	.
=34	=34	=34	=34
2.F	1c	0r	1a]
4E	.	.	.
2D	2d	.	1r
2C	[2e	.	.
=35	=35	=35	=35
1G	4e]	2r	0r
.	4d	.	.
.	1d	1g	.
1E	.	.	.
.	2c#i	2g	.
=36	=36	=36	=36
1D	2d	2.f	0r
.	1a	.	.
.	.	4e	.
2r	.	2d	.
2A	2a	2c	.
=37	=37	=37	=37
2B	2.g	2d	0r
1c	.	2e	.
.	4f	.	.
.	2e	2A	.
2B	2d	2r	.
=38	=38	=38	=38
2A	2c	0r	1r
2G	2.d	.	.
2.F	.	.	2r
.	4c	.	.
.	[2c	.	[2ff
4E	.	.	.
=39	=39	=39	=39
1D	4c]	2r	2ff]
.	4B	.	.
.	4B	2f	2ff
.	4A	.	.
1C	1c	2g	2.ee
.	.	[2a	.
.	.	.	4dd
=40	=40	=40	=40
2r	1r	2a]	2cc
2E	.	2g	2b
2F	2r	2f	2a
[2G	[2g	2e	[2b
=41	=41	=41	=41
4G]	2g]	2.d	4b]
4F	.	.	4a
2D	2f	.	1a
.	.	4c	.
1E	2.e	1B	.
.	.	.	2g#i
.	4d	.	.
=42	=42	=42	=42
1F	2c	1A	0a
.	1f	.	.
2D	.	2r	.
[2A	4e	[2c	.
.	4d	.	.
=43	=43	=43	=43
4A]	2e	2c]	1r
4G	.	.	.
2B	1d	2d	.
1A	.	2e	2r
.	2c	[2f	[2a
=44	=44	=44	=44
1D	1d	2f]	2a]
.	.	4e	2b
.	.	4d	.
1r	1r	2e	2cc
.	.	2d	[2dd
=45	=45	=45	=45
1r	0r	2.f	2dd]
.	.	.	4cc
.	.	4g	4b
2r	.	[1a	1cc
[2F	.	.	.
=46	=46	=46	=46
2F]	1.c	1a]	0r
4E	.	.	.
4D	.	.	.
2E	.	1r	.
2F	4B	.	.
.	4A	.	.
=47	=47	=47	=47
2G	2B	2r	0r
1A	2A	1c	.
.	2c	.	.
4G	2d	4B	.
4F	.	4A	.
=48	=48	=48	=48
2E	2.e	2B	1r
2A	.	2c	.
.	4f	.	.
2G	2g	2d	2r
2F	[2a	2f	[2cc
=49	=49	=49	=49
1A	2a]	2e	2cc]
.	4g	4d	4b
.	4f	4c	4a
2G	2e	4B	2b
.	.	4c	.
[2F	[2f	4d	2a
.	.	4c	.
=50	=50	=50	=50
4F]	4f]	4A	1cc
4E	4g	4B	.
2C	2e	1c	.
1G	1d	.	1dd
.	.	2B	.
=51	=51	=51	=51
0C	2.c	2A	1ee
.	.	2G	.
.	4d	.	.
.	1e	[1g	1cc
=52	=52	=52	=52
0G	2r	1g]	1.dd
.	2d	.	.
.	2B	2r	.
.	2G	2g	4cc
.	.	.	4b
=53	=53	=53	=53
0r	2.d	2f	2a
.	.	2d	2b
.	4c	.	.
.	2A	2.a	2.cc
.	2c	.	.
.	.	4g	4dd
=54	=54	=54	=54
0r	2c	2e	2ee
.	2B	2g	2dd
.	1c	2g	2ee
.	.	2e	[2gg
=55	=55	=55	=55
0r	1r	4f	4gg]
.	.	4g	4ff
.	.	4a	1ff
.	.	4f	.
.	1c	1g	.
.	.	.	2ee
=56	=56	=56	=56
1F	2c	1a	1ff
.	2d	.	.
2E	1e	1g	1r
2C	.	.	.
=57	=57	=57	=57
2.G	1d	1r	0r
4F	.	.	.
2D	2.f	2r	.
2d	.	[2a	.
.	4f	.	.
=58	=58	=58	=58
2c	2e	4a]	0r
.	.	4g	.
2d	2d	2f	.
2A	2c	2e	.
[2d	[2f	4d	.
.	.	4e	.
=59	=59	=59	=59
4d]	4f]	4f	0r
4c	4e	4g	.
2A	1e	1a	.
1B-X	.	.	.
.	2d	2g	.
=60	=60	=60	=60
2.A	1e	0a	1r
4G	.	.	.
4F	1r	.	1cc
4E	.	.	.
[2F	.	.	.
=61	=61	=61	=61
2F]	2r	1f	2cc
4E	2f	.	2dd
4D	.	.	.
1C	2e	2g	1ee
.	2c	2a	.
=62	=62	=62	=62
0r	2.g	1b	1dd
.	4f	.	.
.	2d	[1a	2.ff
.	2d	.	.
.	.	.	4ff
=63	=63	=63	=63
1r	2c	2a]	2ee
.	2d	2f	2dd
2r	2A	2e	2cc
2D	[2a	[2d	[2ff
=64	=64	=64	=64
2F	4a]	2d]	4ff]
.	4g	.	4ee
2G	2e	4c	1ee
.	.	4B	.
2A	1f	2c	.
2B	.	2d	2dd
=65	=65	=65	=65
2.c	0e	1A	2ee
.	.	.	2a
4B	.	.	.
4A	.	2r	2.cc
4G	.	.	.
[2A	.	[2cc	.
.	.	.	4dd
=66	=66	=66	=66
2A]	1r	2cc]	2ee
4G	.	2a	2ff
4F	.	.	.
2E	1e	2b	2.gg
[2c	.	4e	.
.	.	4f	4ff
=67	=67	=67	=67
2c]	1c	4g	4ee
.	.	8fL	4dd
.	.	8gJ	.
2A	.	1a	1ff
1B-X	1d	.	.
.	.	2g	4ee
.	.	.	4dd
=68	=68	=68	=68
0A	0e	1a	2cc
.	.	.	1dd
.	.	2r	.
.	.	[2a	2cc#i
=69	=69	=69	=69
1d	1r	2a]	1dd
.	.	4g	.
.	.	4f	.
2c	2r	2g	1r
2A	[2f	[2a	.
=70	=70	=70	=70
1B	2f]	2a]	1r
.	4e	2g#i	.
.	4d	.	.
[1A	2f	1a	2r
.	2e	.	[2cc
=71	=71	=71	=71
2A]	2c	0r	2cc]
4G	2d	.	4b
4F	.	.	4a
1E	[1e	.	2cc
.	.	.	2b
=72	=72	=72	=72
0r	2e]	0r	2g
.	4d	.	2a
.	4c	.	.
.	2d	.	2b
.	2c	.	[2cc
=73	=73	=73	=73
0r	2A	0r	4cc]
.	.	.	4b
.	1f	.	4a
.	.	.	4g
.	.	.	2a
.	[2e	.	2g
=74	=74	=74	=74
0r	2e]	1r	1f
.	2d	.	.
.	2.e	2r	1e
.	.	[2g	.
.	4c	.	.
=75	=75	=75	=75
2r	1c	2g]	0r
1A	.	2f	.
.	1r	2.e	.
2G	.	.	.
.	.	4d	.
=76	=76	=76	=76
2F	0r	2f	0r
2.G	.	2.e	.
4F	.	4d	.
2D	.	[2d	.
=77	=77	=77	=77
1E	1r	2d]	2r
.	.	2c#i	1gg
2D	2r	2.d	.
2d	[2a	.	2ff
.	.	4cny	.
=78	=78	=78	=78
2c	2a]	2A	2.ee
2e	2g	2c	.
.	.	.	4dd
2d	2f	2d	2ff
[2c	[2g	[2e	[2ee
=79	=79	=79	=79
4c]	4g]	4e]	4ee]
4d	4f	4f	4dd
2B	2d	2g	1dd
1A	2e	1a	.
.	[2e	.	2cc
=80	=80	=80	=80
2r	2e]	2g	2.b
2D	2d	2.f	.
.	.	.	4a
2A	2c	.	2cc
.	.	4e	.
2G	[2d	2g	[2b
=81	=81	=81	=81
2A	4d]	4f	4b]
.	4c	2e	4a
2F	2A	.	1a
.	.	4d	.
1E	1B	1e	.
.	.	.	2g#i
=82	=82	=82	=82
0Al	0Al	0el	0al
=83||	=83||	=83||	=83||
*M2/1	*M2/1	*M2/1	*M2/1
*met(C|)	*met(C|)	*met(C|)	*met(C|)
!!section: Qui tollis
!!!OMD: Qui tollis
0r	0r	1a	1r
.	.	1a	1ee
=84	=84	=84	=84
0r	0r	1g	1ee
.	.	1f	1dd
=85	=85	=85	=85
0r	0r	1.a	1cc
.	.	.	[1ee
.	.	2g	.
=86	=86	=86	=86
1A	0r	2.f	2ee]
.	.	.	2dd
.	.	8eL	.
.	.	8dJ	.
1A	.	4e	2.cc
.	.	4c	.
.	.	[2f	.
.	.	.	8bL
.	.	.	8aJ
=87	=87	=87	=87
1G	0r	2f]	1b
.	.	2e	.
1F	.	[1f	[1a
=88	=88	=88	=88
1.A	1r	2f]	1a]
.	.	4e	.
.	.	4d	.
.	1a	2c	1r
2G	.	2d	.
=89	=89	=89	=89
2F	1a	2A	0r
4E	.	1d	.
4D	.	.	.
1E	1g	.	.
.	.	2c#i	.
=90	=90	=90	=90
0D	1f	1d	2r
.	.	.	2ff
.	[1a	1r	2ff
.	.	.	4ee
.	.	.	4dd
=91	=91	=91	=91
0r	2a]	0r	2cc
.	2g	.	2dd
.	2f	.	2a
.	4e	.	[2dd
.	4d	.	.
=92	=92	=92	=92
0r	1e	1r	2dd]
.	.	.	2cc#i
.	1d	1a	2dd
.	.	.	2ff
=93	=93	=93	=93
0r	2r	1a	2ee
.	2A	.	2cc
.	2B	1g	2dd
.	2c	.	2ee
=94	=94	=94	=94
1r	2d	1f	2a
.	2B-X	.	2.dd
2r	2A	[1a	.
.	.	.	4cc
2A	2c	.	[2ff
=95	=95	=95	=95
2B	2d	2a]	2ff]
2c	2e	2g	2.ee
2d	2f	2f	.
.	.	.	4dd
2B	2g	4e	[2dd
.	.	4d	.
=96	=96	=96	=96
1A	1a	1e	2dd]
.	.	.	2cc#i
[1D	1f	2.d	1dd
.	.	4e	.
=97	=97	=97	=97
0D]	1r	4f	1r
.	.	4g	.
.	.	1f	.
.	1d	.	1ff
.	.	4e	.
.	.	4d	.
=98	=98	=98	=98
1A	1e	2c	1ee
.	.	1cc	.
1d	1f	.	1dd
.	.	2b	.
=99	=99	=99	=99
1c	1g	0cc	2.ee
.	.	.	8ddL
.	.	.	8eeJ
[1A	1a	.	2ff
.	.	.	[2ee
=100	=100	=100	=100
1A]	2.e	2r	4ee]
.	.	.	4dd
.	.	2c	4cc
.	8dL	.	4b
.	8eJ	.	.
1r	2f	2d	2a
.	[2e	2c	[2cc
=101	=101	=101	=101
1A	4e]	2A	4cc]
.	4d	.	4dd
.	4c	2.a	2ee
.	4B	.	.
2F	2A	.	2ff
.	.	4g	.
2G	2B	2e	[2ee
=102	=102	=102	=102
2A	2c	2f	4ee]
.	.	.	4dd
2B-i	2d	2g	1dd
1A	1e	1a	.
.	.	.	2cc#i
=103	=103	=103	=103
1D	1d	1r	1dd
[1G	[1d	[1g	[1b
=104	=104	=104	=104
2G]	2d]	2g]	2b]
2G	2d	2g	2b
1G	1d	1g	1b
=105	=105	=105	=105
1.F	1.f	1a	1cc
.	.	2a	2dd
2G	2e	2g	2ee
=106	=106	=106	=106
2A	1c	2e	2ee
2A	.	2.a	2.ff
1B-X	1d	.	.
.	.	4g	4ee
.	.	2g	[2dd
=107	=107	=107	=107
1A	1e	0a	2dd]
.	.	.	2cc#i
2r	1f	.	2dd
[2A	.	.	4ccny
.	.	.	4dd
=108	=108	=108	=108
2A]	1.e	1b	4ee
.	.	.	4ff
2G	.	.	2.gg
2A	.	[1a	.
.	.	.	4cc
[2D	2d	.	[2ff
=109	=109	=109	=109
2D]	1e	1a]	4ff]
.	.	.	4ee
2C	.	.	1ee
1D	1f	2r	.
.	.	[2A	2dd
=110	=110	=110	=110
1r	1e	2A]	0ee
.	.	2G	.
2r	1r	2.A	.
[2A	.	.	.
.	.	4B	.
=111	=111	=111	=111
4A]	0e	2c	0r
4B	.	.	.
1c	.	1A	.
4B	.	2c	.
4A	.	.	.
=112	=112	=112	=112
2G	1e	2B	0r
2A	.	2c	.
4D	1f	2d	.
4E	.	.	.
4F	.	4A	.
4G	.	4B	.
=113	=113	=113	=113
4A	1e	4c	0r
4B	.	4d	.
2.c	.	4e	.
.	.	4f	.
.	2e	4g	.
4B	.	4a	.
2G	2d	[2b	.
=114	=114	=114	=114
1A	1c	4b]	0ee
.	.	4a	.
.	.	1a	.
1E	1B	.	.
.	.	2g#i	.
=115	=115	=115	=115
2r	1A	0a	1ee
2A	.	.	.
2d	1r	.	1ff
2d	.	.	.
=116	=116	=116	=116
2.c	0r	2r	1ee
.	.	2A	.
4B	.	.	.
4A	.	2c	2ee
4G	.	.	.
2B	.	2d	2dd
=117	=117	=117	=117
2A	0r	2e	1cc
4G	.	2.f	.
4F	.	.	.
1G	.	.	1b
.	.	4e	.
.	.	[2e	.
=118	=118	=118	=118
1F	1A	2e]	1a
.	.	2d	.
2r	2.c	1e	1a
[2A	.	.	.
.	4d	.	.
=119	=119	=119	=119
2A]	2e	1r	2cc
4G	2f	.	2dd
4F	.	.	.
4E	2g	2r	2ee
4D	.	.	.
[2d	[2a	2d	[2ff
=120	=120	=120	=120
2d]	4a]	2f	2ff]
.	4g	.	.
2c	2e	2g	2.ee
2A	1f	2a	.
.	.	.	8ddL
.	.	.	8ccJ
2d	.	[2b-i	2dd
=121	=121	=121	=121
2.c	1e	4b-]	1ee
.	.	4a	.
.	.	1a	.
8B-XL	.	.	.
8AJ	.	.	.
1B-i	1r	.	1r
.	.	2g	.
=122	=122	=122	=122
0A	1.e	1a	2r
.	.	.	1cc
.	.	1r	.
.	2e	.	2cc
=123	=123	=123	=123
0r	2f	0r	2cc
.	2e	.	2ee
.	2f	.	2dd
.	2g	.	2dd
=124	=124	=124	=124
0r	2a	0r	4cc
.	.	.	4dd
.	4g	.	4ee
.	4f	.	4ff
.	2e	.	2gg
.	2f	.	[2ff
=125	=125	=125	=125
0r	1g	1r	2ff]
.	.	.	2ee
.	2.f	2r	1ff
.	.	2cc	.
.	4e	.	.
=126	=126	=126	=126
0r	1d	2b	2r
.	.	2a	2ff
.	1r	2g	2ee
.	.	2b	2dd
=127	=127	=127	=127
1r	1r	2a	2cc
.	.	4g	2dd
.	.	4f	.
2r	2r	2e	2.cc
2F	2f	2a	.
.	.	.	8bL
.	.	.	8aJ
=128	=128	=128	=128
2G	2e	1g	1b
2G	2d	.	.
2A	2c	1r	1a
4G	2d	.	.
4F	.	.	.
=129	=129	=129	=129
2E	2.c	2r	0r
2F	.	2f	.
.	8BL	.	.
.	8AJ	.	.
1G	1B	2e	.
.	.	2d	.
=130	=130	=130	=130
0r	1A	2c	2r
.	.	2.e	2cc
.	1r	.	2b
.	.	4d	.
.	.	2c	2a
=131	=131	=131	=131
0r	0r	2B	2g
.	.	4A	1a
.	.	4B	.
.	.	4c	.
.	.	4d	.
.	.	[2e	2g
=132	=132	=132	=132
1r	1r	2e]	1f
.	.	2d	.
2r	1c	1e	1e
2c	.	.	.
=133	=133	=133	=133
2B	2d	0r	0r
2A	1e	.	.
2G	.	.	.
[2A	[2f	.	.
=134	=134	=134	=134
2A]	4f]	0r	0r
.	4e	.	.
2G	1e	.	.
1F	.	.	.
.	2d	.	.
=135	=135	=135	=135
1E	[0e	2r	0r
.	.	2g	.
[1A	.	2.a	.
.	.	4b	.
=136	=136	=136	=136
2A]	0e]	2cc	1r
2G	.	2.b	.
2.c	.	.	2r
.	.	4a	.
.	.	[2a	2cc
4A	.	.	.
=137	=137	=137	=137
1B	2r	2a]	2.dd
.	1d	2g	.
.	.	.	4ee
[1A	.	1a	2ff
.	2c	.	[2ee
=138	=138	=138	=138
0A]	2.f	[0a	4ee]
.	.	.	4dd
.	.	.	1dd
.	4d	.	.
.	1e	.	.
.	.	.	2cc#i
=139	=139	=139	=139
*M3/1	*M3/1	*	*M3/1
*met(O|3)	*met(O|3)	*	*met(O|3)
0D	0.d	0.a]	0dd
1r	.	.	1r
=140	=140	=140	=140
*	*	*M3/1	*
*	*	*met(O|3)	*
1d	1r	1a	0dd
1d	1f	1a	.
1d	1f	1a	1dd
=141	=141	=141	=141
1.A	1f	0a	1cc
.	0e	.	0cc
2B	.	.	.
1c	.	1g	.
=142	=142	=142	=142
1d	1d	1f	1b
0c	1.e	0g	1.cc
.	2c	.	2b
=143	=143	=143	=143
0F	0c	0f	0a
1A	1r	1e	1r
=144	=144	=144	=144
1A	1c	1f	1a
1G	1d	1g	1b
1c	1e	1g	1cc
=145	=145	=145	=145
1A	0e	1a	1cc
1c	.	1g	1.ee
1B-X	1f	1b-X	.
.	.	.	2dd
=146	=146	=146	=146
1G	1g	1b-i	1.dd
0A	0e	1.a	.
.	.	.	4cc#i
.	.	.	4b
.	.	.	1cc#i
.	.	2g	.
=147	=147	=147	=147
*M2/1	*M2/1	*M2/1	*M2/1
*met(C|)	*met(C|)	*met(C|)	*met(C|)
2.D	1d	4f	2dd
.	.	4e	.
.	.	1f	2.a
4E	.	.	.
4F	[1c	.	.
4G	.	.	4b
[2A	.	2e	4cc
.	.	.	4dd
=148	=148	=148	=148
2A]	2c]	1a	2ee
4G	2d	.	2ff
4F	.	.	.
2E	2e	2g	2gg
2D	[2f	[2a	[2ff
=149	=149	=149	=149
2d	2f]	4a]	4ff]
.	.	4f	4dd
2G	2g	2b-i	1dd
1A	1e	1a	.
.	.	.	2cc#i
=150	=150	=150	=150
0Dl	0dl	0al	0ddl
==	==	==	==
*-	*-	*-	*-
!!!system-decoration: s1,s2,s3,s4
!!!RDF**kern: i = editorial accidental
!!!RDF**kern: l = terminal long
!!!ENC: Maura Sugg
!!!END: 2026/4/12
!!!EED: Benjamin Ory
!!!EEV: 2026/04/22
!!!YEC: Copyright 2026 Irene Holzer, All Rights Reserved
!!!ONB: Translated from MusicXML on 2026/04/22
!!!verovio: header encoded
!!!header-left: Edited by Irene Holzer\n
!!!header-right:
!!!header-center: